!!!!SEGMENT: pl-wnifc--13846--093_anonim--piesni-polskie-i-ruskie-ludu-galicyjskiego-93-o-gdybym-ja-widzial.krn
!!!kernsource:
!!!cenid: 18xx:3315
!!!COM: Anonim
!!!COM-rismID: pe30004985
!!!CDT:
!!!CNT:
!!!GTL: Pieśni polskie i ruskie ludu galicyjskiego
!!!OTL: 93. O gdybym ja widział
!!!PDT: 1833
!!!AGN:
!!!SMS-siglum: PL-Wnifc
!!!SMS-shelfmark: 13846
!!!SMS-shelfwork: 093 G
!!!NIFC-rismSourceID: 1001036701
!!!NIFC-rismChildID: 1001039019
!!!NIFC-islandoraID: nifc:210326
!!!URL-pdf-islandora: https://repozytorium.nifc.pl/islandora/object/nifc%3A210326/datastream/PDF/view
!!!URL-scan:
!!!ONB-nifc:
!!!OMD: Andante
!!!AIN: 1 piano 1 vox
!!!key: b
**kern	**kern	**dynam	**kern	**text
*part2	*part2	*part2	*part1	*part1
*staff3	*staff2	*	*staff1	*staff1
*I"FORTEPIAN.	*I"FORTEPIAN.	*	*I"GŁOS.	*
*Ipiano	*Ipiano	*	*Ivox	*
*ICklav	*ICklav	*	*ICvox	*
*IGacmp	*IGacmp	*	*IGsolo	*
*clefF4	*clefG2	*	*clefG2	*
*k[f#c#]	*k[f#c#]	*	*k[f#c#]	*
*b:	*b:	*	*b:	*
*M2/4	*M2/4	*	*M2/4	*
=1-	=1-	=1-	=1-	=1-
!LO:TX:t=P:problem=mixed beam	!LO:TX:a:t=E.78.:rj	!	!	!
8BB/L	(>16bb\LL 16b\	<	(>16b\LL	O
.	16ccc#\ 16cc#\	.	16cc#\	.
8d\J 8B\	16ddd\ 16dd\	.	16dd\JJ)	.
.	16eee\JJ 16ee\)	[	16ee\	gdy-
8BB/	8fff#\L 8ff#\^<	.	8ff#\	-bym
8d\ 8B\;<	8fff#\J 8ff#\;<	.	8ff#\;	ja
=2	=2	=2	=2	=2
*^	*	*	*	*
4A^/	4G\ 4E\ 4C#\	16eee\LL 16ee\'	.	16ee\	wi-
.	.	16eee\ 16ee\'	.	16ee\	-dział
.	.	(>16eee\ 16ee\	.	(>16ee\LL	że
.	.	16aa\JJ 16a\)	.	16a\JJ)	.
4A^/	4A\ 4F#\ 4D\	4aa\ 4a\	.	4a/	cię
!!LO:LB:g=original
=3	=3	=3	=3	=3	=3
4A#X/ 4F#/^	4E\ 4C#\	16eee\LL 16ee\	.	16ee\	gło
!	!	!	!	!LO:TX:t=P:problem=tekst słowny nieczytelny	!
.	.	16eee\ 16ee\	.	16ee\	.
.	.	16eee\ 16ee\'	.	16ee\	do
.	.	16eee\JJ 16ee\|	.	16ee\	mi-
8B/L 8D/ 8BB/^	8BB\L	(>16fff#\LL 16ff#\	.	(>16ff#\LL	-ło-
.	.	16eee\JJ 16ee\)	.	16ee\JJ)	.
*	*	*Xtuplet	*	*Xtuplet	*
!	!	!LO:TUP:a:problem=klamra łukowa	!	!LO:TUP:a:problem=klamra łukowa	!
8B/J 8F#/ 8BB/^	8BB\J	24ddd\LL 24dd\	.	24dd\LL	-ści
.	.	24ccc#\ 24cc#\	.	24cc#\	.
.	.	24bb\JJ 24b\	.	24b\JJ	.
*v	*v	*	*	*	*
=4	=4	=4	=4	=4
!LO:TX:t=P:problem=mixed beam	!	!	!	!
8FF#/L	(>4ddd\ 4dd\	.	(>4dd\	wzbu-
8e#X\ 8B\ 8F#\^<	.	.	.	.
8f#\J 8A#X\ 8F#\	8ccc#\ 8cc#\)	.	8cc#\)	-dzi
8FF#/	8r	.	8r	.
!!LO:LB:g=original
=5	=5	=5	=5	=5
*	*8va	*	*	*
!LO:TX:t=P:problem=mixed beam	!	!LO:DY:b=2	!	!
16BB/LL	(>8bb\L	f	(>8b\L	ach
16d\	.	.	.	.
16B\	16ggg\L)	.	16gg\Jk)	.
16d\JJ	16ggg\JJ	.	16gg\|	dziew-
16B\^<LL	8ggg\^<	.	8gg\	-czy-
16d\	.	.	.	.
16B\^<	(>16.gggLL\^<	.	(>16.gg\LL	-no
16d\JJ	.	.	.	.
.	32fff#\JJk)	.	32ff#\JJk)	.
=6	=6	=6	=6	=6
16A#X\^<LL	8.fff#\|^<L	.	8.ff#\	na
16c#\	.	.	.	.
16A#\	.	.	.	.
16c#\JJ	(>32ggg\LL	.	(>32gg\LLL	tym
.	32fff#\JJJ)	.	32ff#\JJJ)	.
16B\^<LL	(>8fff#\|L	.	8ff#\	świe-
16d\	.	.	.	.
16B\	8fff#\|J)	.	8ff#\	-cie
16d\JJ	.	.	.	.
*	*X8va	*	*	*
!!LO:LB:g=original
=7	=7	=7	=7	=7
!LO:TX:t=P:problem=mixed beam	!	!	!LO:TX:t=P:problem=mixed beam	!
8FF#/L	(>8ff#\L 8f#\^<	.	(>8f#/L	naj-
8e\J 8A#X\ 8F#\	16fff#\L 16ff#\)	.	16ff#\Jk)	.
.	16fff#\JJ 16ff#\	.	16ff#\|	-szczę-
8BB\L	8.fff#\L 8.ff#\^<	.	8.ff#\	-sliw-
8d\J 8B\ 8F#\	.	.	.	.
.	16ff#\Jk 16f#\	.	16f#/	-szym
=8	=8	=8	=8	=8
!LO:TX:t=P:problem=mixed beam	!	!	!	!
8FF#/L	(>8ff#\L 8f#\	.	(<8f#/L	był-
8e\J 8c#\ 8F#\	16.gg#X\L 16.g#X\)	.	16.g#X/Jk)	.
.	32aa#X\JJk 32a#X\	.	32a#X/	-bym
8d\ 8B\	(>16ccc#\LL 16cc#\|	.	16cc#\	z_lu-
!	!	!	!LO:N:vis=8	!
.	16bb\JJ 16b\|)	.	16b\	-dzi.
8r	8r	.	8r	.
==	==	==	==	==
*-	*-	*-	*-	*-
!!!system-decoration: <s1>{(s2,s3)}
!!!RDF**kern: > = above
!!!RDF**kern: < = below
!!!RDF**kern: | = vertical stroke
!!!ENC: Andrzej Kubiczek
!!!END: 2021-11-11
!!!YEC: Copyright 2022 Narodowy Instytut Fryderyka Chopina (https://polishscores.org)
!!!YEM: License CC-BY-4.0 (https://creativecommons.org/licenses/by/4.0)
